Catalina-light/actions/16/kstars_hgrid.svg

<svg xmlns="http://www.w3.org/2000/svg" width="16" height="16" viewBox="0 0 16 16">
 <defs>
  <style id="current-color-scheme" type="text/css">
   .ColorScheme-Text { color:#5c616c; } .ColorScheme-Highlight { color:#5294e2; }
  </style>
 </defs>
 <path style="fill:currentColor" class="ColorScheme-Text" d="M 4.0292969 0 L 3.3261719 1.8085938 C 2.1832719 1.4646938 1.0671 1.0049281 0 0.42382812 L 0 1.8125 C 0.9327 2.2775 1.8919 2.6701031 2.875 2.9707031 L 1.3808594 6.8164062 C 0.91155937 6.6024062 0.4531 6.3575094 0 6.0996094 L 0 7.5078125 C 0.30873 7.6668925 0.61679062 7.8288331 0.93164062 7.9707031 L 0 10.369141 L 0 13.787109 L 0.0546875 13.646484 C 2.3614875 14.771884 4.8504281 15.391072 7.3613281 15.513672 L 7.3632812 16 L 8.5996094 16 L 8.5996094 15.535156 C 11.129609 15.494156 13.651 14.947625 16 13.890625 L 16 10.1875 L 15.310547 8.40625 C 15.544547 8.31725 15.768 8.2015156 16 8.1035156 L 16 6.7578125 C 15.623 6.9308125 15.246375 7.104 14.859375 7.25 L 13.263672 3.1425781 C 14.193672 2.8929781 15.109 2.5703344 16 2.1777344 L 16 0.8046875 C 14.97 1.2998875 13.905453 1.6984219 12.814453 1.9824219 L 12.042969 0 L 10.705078 0 L 11.583984 2.2558594 C 10.589984 2.4395594 9.5841719 2.535975 8.5761719 2.546875 L 8.5703125 0 L 7.3222656 0 L 7.3300781 2.5175781 C 6.3932781 2.4611781 5.4588625 2.3351062 4.5390625 2.1289062 L 5.3671875 0 L 4.0292969 0 z M 4.0839844 3.2949219 C 5.1534844 3.5452019 6.2404312 3.6951894 7.3320312 3.7558594 L 7.34375 8.3417969 C 5.70745 8.2197969 4.0855969 7.8710156 2.5292969 7.2910156 L 4.0839844 3.2949219 z M 12.041016 3.4296875 L 13.683594 7.6484375 C 12.022894 8.1453275 10.305237 8.397075 8.5859375 8.390625 L 8.578125 3.7851562 C 9.739125 3.7730512 10.898016 3.6556675 12.041016 3.4296875 z M 2.0800781 8.4453125 C 3.7821781 9.0794825 5.5570563 9.4567781 7.3476562 9.5800781 L 7.359375 14.275391 C 5.001975 14.151391 2.6705656 13.550516 0.50976562 12.478516 L 2.0800781 8.4453125 z M 14.134766 8.8046875 L 15.646484 12.683594 C 13.413184 13.718094 11.009503 14.256728 8.5957031 14.298828 L 8.5878906 9.6269531 C 10.459291 9.6325531 12.329466 9.3547175 14.134766 8.8046875 z"/>
</svg>

<svg width="16" height="16" viewBox="0 0 16 16" xmlns="http://www.w3.org/2000/svg">
<defs>
<style id="current-color-scheme" type="text/css">.ColorScheme-Text { color:#5c616c; } .ColorScheme-Highlight { color:#5294e2; }</style>
</defs>
<path class="ColorScheme-Text" d="m4.0293 0-0.70312 1.8086c-1.1429-0.3439-2.2591-0.80367-3.3262-1.3848v1.3887c0.9327 0.465 1.8919 0.8576 2.875 1.1582l-1.4941 3.8457c-0.4693-0.214-0.92776-0.4589-1.3809-0.7168v1.4082c0.30873 0.15908 0.61679 0.32102 0.93164 0.46289l-0.93164 2.3984v3.418l0.054688-0.14062c2.3068 1.1254 4.7957 1.7446 7.3066 1.8672l0.0019531 0.48633h1.2363v-0.46484c2.53-0.041 5.0514-0.58753 7.4004-1.6445v-3.7031l-0.68945-1.7812c0.234-0.089 0.45745-0.20473 0.68945-0.30273v-1.3457c-0.377 0.173-0.75362 0.34619-1.1406 0.49219l-1.5957-4.1074c0.93-0.2496 1.8453-0.57224 2.7363-0.96484v-1.373c-1.03 0.4952-2.0945 0.89373-3.1855 1.1777l-0.77148-1.9824h-1.3379l0.87891 2.2559c-0.994 0.1837-1.9998 0.28012-3.0078 0.29102l-0.0058594-2.5469h-1.248l0.0078125 2.5176c-0.9368-0.0564-1.8712-0.18247-2.791-0.38867l0.82812-2.1289h-1.3379zm0.054688 3.2949c1.0695 0.25028 2.1564 0.40027 3.248 0.46094l0.011719 4.5859c-1.6363-0.122-3.2582-0.47078-4.8145-1.0508l1.5547-3.9961zm7.957 0.13477 1.6426 4.2188c-1.6607 0.49689-3.3784 0.74864-5.0977 0.74219l-0.0078125-4.6055c1.161-0.012105 2.3199-0.12949 3.4629-0.35547zm-9.9609 5.0156c1.7021 0.63417 3.477 1.0115 5.2676 1.1348l0.011719 4.6953c-2.3574-0.124-4.6888-0.72488-6.8496-1.7969l1.5703-4.0332zm12.055 0.35938 1.5117 3.8789c-2.2333 1.0345-4.637 1.5731-7.0508 1.6152l-0.0078125-4.6719c1.8714 0.0056 3.7416-0.27224 5.5469-0.82227z" fill="#363636"/>
</svg>
